icon_installer/data/icons/scalable/actions/show-vpn-caps-symbolic.svg

<?xml version="1.0" encoding="UTF-8"?>
<svg height="16px" viewBox="0 0 16 16" width="16px" xmlns="http://www.w3.org/2000/svg">
    <path d="m 0 5 l 2 7 h 2 l 2 -7 h -2 l -1 3.5 l -1 -3.5 z m 6 0 v 7 h 2 v -2 h 0.5 c 1.378906 0 2.5 -1.121094 2.5 -2.5 s -1.121094 -2.5 -2.5 -2.5 z m 5 2.5 v 4.5 h 2 v -3 l 1 3 h 2 v -7 h -2 v 3 l -1 -3 h -2 z m -3 -0.75 h 0.5 c 0.414062 0 0.75 0.335938 0.75 0.75 s -0.335938 0.75 -0.75 0.75 h -0.5 z m 0 0" fill="#222222"/>
</svg>

<svg xmlns="http://www.w3.org/2000/svg" width="16" height="16"><path fill="#222" d="m0 5 2 7h2l2-7H4L3 8.5 2 5zm6 0v7h2v-2h.5C9.879 10 11 8.879 11 7.5S9.879 5 8.5 5zm5 2.5V12h2V9l1 3h2V5h-2v3l-1-3h-2zm-3-.75h.5a.75.75 0 0 1 0 1.5H8zm0 0"/></svg>
